sources/design/Outline/2.svg

<svg:svg xmlns:cc="http://creativecommons.org/ns#" xmlns:dc="http://purl.org/dc/elements/1.1/" xmlns:inkscape="http://www.inkscape.org/namespaces/inkscape" xmlns:rdf="http://www.w3.org/1999/02/22-rdf-syntax-ns#" xmlns:sodipodi="http://sodipodi.sourceforge.net/DTD/sodipodi-0.dtd" xmlns:svg="http://www.w3.org/2000/svg" xml:space="preserve" width="1000" height="1000" version="1.1" style="clip-rule:evenodd;fill-rule:evenodd;image-rendering:optimizeQuality;shape-rendering:geometricPrecision;text-rendering:geometricPrecision" viewBox="0 0 1000 1000" id="svg10" sodipodi:docname="2.svg" inkscape:version="1.1.1 (3bf5ae0d25, 2021-09-20)"><svg:metadata id="metadata14"><rdf:RDF><cc:Work rdf:about=""><dc:format>image/svg+xml</dc:format><dc:type rdf:resource="http://purl.org/dc/dcmitype/StillImage" /></cc:Work></rdf:RDF></svg:metadata><sodipodi:namedview pagecolor="#ffffff" bordercolor="#666666" borderopacity="1" objecttolerance="10" gridtolerance="10" guidetolerance="10" inkscape:pageopacity="0" inkscape:pageshadow="2" inkscape:window-width="1920" inkscape:window-height="1009" id="namedview12" showgrid="false" inkscape:zoom="1.2005384" inkscape:cx="144.51849" inkscape:cy="370.66702" inkscape:window-x="1920" inkscape:window-y="0" inkscape:window-maximized="1" inkscape:current-layer="svg10" showguides="true" inkscape:guide-bbox="true" inkscape:document-rotation="0" inkscape:pagecheckerboard="0"><sodipodi:guide position="0,1000" orientation="0,1" id="guide16" inkscape:label="" inkscape:locked="true" inkscape:color="rgb(0,0,255)" /><sodipodi:guide position="1763.3122,2036.1693" orientation="1000,0" id="guide18" /><sodipodi:guide position="0,200" orientation="0,1" id="guide20" inkscape:label="base" inkscape:locked="true" inkscape:color="rgb(0,0,255)" /><inkscape:grid type="xygrid" id="grid24" originx="-473.37552" originy="-489.69235" /><sodipodi:guide position="0,0" orientation="0,1" id="guide34" inkscape:label="bottom" inkscape:locked="true" inkscape:color="rgb(0,0,255)" /><sodipodi:guide position="225.05109,1693.3186" orientation="0,1" id="guide44" inkscape:label="" inkscape:locked="false" inkscape:color="rgb(0,0,255)" /><sodipodi:guide position="0,900" orientation="0,1" id="guide46" inkscape:label="" inkscape:locked="true" inkscape:color="rgb(0,0,255)" /><sodipodi:guide position="479.442,877.39146" orientation="-1,0" id="guide841" inkscape:label="width" inkscape:locked="false" inkscape:color="rgb(0,0,255)" /></sodipodi:namedview>
 <svg:defs id="defs4"><inkscape:path-effect effect="fillet_chamfer" id="path-effect855" is_visible="true" lpeversion="1" satellites_param="F,0,0,1,0,15.855494,0,1 @ F,0,0,1,0,15.855494,0,1 @ F,0,0,1,0,0,0,1 @ F,0,0,1,0,0,0,1 @ F,0,0,1,0,0,0,1 @ F,0,0,1,0,0,0,1 @ F,0,0,1,0,0,0,1 @ F,0,0,1,0,0,0,1 @ F,0,0,1,0,0,0,1 @ F,0,0,1,0,0,0,1 @ F,0,0,1,0,0,0,1 @ F,0,0,1,0,0,0,1 @ F,0,0,1,0,0,0,1 @ F,0,0,1,0,0,0,1 @ F,0,0,1,0,0,0,1 @ F,0,0,1,0,0,0,1 @ F,0,0,1,0,15.855494,0,1 @ F,0,0,1,0,15.855494,0,1 @ F,0,0,1,0,0,0,1 @ F,0,0,1,0,0,0,1 @ F,0,1,1,0,9.2919795,0,1 @ F,0,1,1,0,9.2919795,0,1 @ F,0,0,1,0,0,0,1 @ F,0,0,1,0,0,0,1 @ F,0,0,1,0,0,0,1 @ F,0,0,1,0,0,0,1 @ F,0,0,1,0,0,0,1 @ F,0,0,1,0,0,0,1 @ F,0,0,1,0,0,0,1 @ F,0,0,1,0,0,0,1" unit="px" method="auto" mode="F" radius="0" chamfer_steps="1" flexible="false" use_knot_distance="true" apply_no_radius="true" apply_with_radius="true" only_selected="true" hide_knots="false" /><inkscape:path-effect effect="fillet_chamfer" id="path-effect854" is_visible="true" lpeversion="1" satellites_param="F,0,1,1,0,34.686291,0,1 @ F,0,1,1,0,34.686291,0,1 @ F,0,0,1,0,0,0,1 @ F,0,0,1,0,0,0,1 @ F,0,0,1,0,0,0,1 @ F,0,0,1,0,0,0,1 @ F,0,0,1,0,0,0,1 @ F,0,0,1,0,0,0,1 @ F,0,0,1,0,0,0,1 @ F,0,0,1,0,0,0,1 @ F,0,0,1,0,0,0,1 @ F,0,0,1,0,0,0,1 @ F,0,0,1,0,0,0,1 @ F,0,0,1,0,0,0,1 @ F,0,0,1,0,0,0,1 @ F,0,1,1,0,34.686291,0,1 @ F,0,1,1,0,34.686291,0,1 @ F,0,0,1,0,0,0,1 @ F,0,0,1,0,0,0,1 @ F,0,0,1,0,0,0,1 @ F,0,1,1,0,34.686291,0,1 @ F,0,0,1,0,0,0,1 @ F,0,0,1,0,0,0,1 @ F,0,0,1,0,0,0,1 @ F,0,0,1,0,0,0,1 @ F,0,0,1,0,0,0,1 @ F,0,0,1,0,0,0,1 @ F,0,0,1,0,0,0,1 @ F,0,0,1,0,0,0,1" unit="px" method="auto" mode="F" radius="0" chamfer_steps="1" flexible="false" use_knot_distance="true" apply_no_radius="true" apply_with_radius="true" only_selected="true" hide_knots="false" /><inkscape:path-effect effect="fillet_chamfer" id="path-effect853" is_visible="true" lpeversion="1" satellites_param="F,0,0,1,1,34.977059,0,1 @ F,0,0,1,1,16.975097,0,1 @ F,0,0,1,1,0,0,1 @ F,0,0,1,1,0,0,1 @ F,0,0,1,1,0,0,1 @ F,0,0,1,1,0,0,1 @ F,0,0,1,1,0,0,1 @ F,0,0,1,1,0,0,1 @ F,0,1,1,1,0,0,1 @ F,0,0,1,1,0,0,1 @ F,0,0,1,1,0,0,1 @ F,0,0,1,1,0,0,1 @ F,0,0,1,1,0,0,1 @ F,0,0,1,1,0,0,1 @ F,0,0,1,1,0,0,1 @ F,0,0,1,1,0,0,1 @ F,0,0,1,1,0,0,1 @ F,0,0,1,1,0,0,1 @ F,0,0,1,1,0,0,1 @ F,0,0,1,1,0,0,1 @ F,0,0,1,1,32.511353,0,1 @ F,0,0,1,1,21.83072,0,1 @ F,0,0,1,1,0,0,1 @ F,0,0,1,1,0,0,1 @ F,0,0,1,1,0,0,1 @ F,0,0,1,1,31.407973,0,1 @ F,0,0,1,1,0,0,1 @ F,0,0,1,1,0,0,1 @ F,0,0,1,1,0,0,1 @ F,0,0,1,1,0,0,1 @ F,0,0,1,1,0,0,1 @ F,0,0,1,1,0,0,1 @ F,0,0,1,1,0,0,1" unit="px" method="auto" mode="F" radius="0" chamfer_steps="1" flexible="false" use_knot_distance="true" apply_no_radius="true" apply_with_radius="true" only_selected="true" hide_knots="true" /><inkscape:path-effect effect="spiro" id="path-effect852" is_visible="true" lpeversion="1" /><inkscape:path-effect effect="spiro" id="path-effect850" is_visible="true" lpeversion="1" /><inkscape:path-effect effect="spiro" id="path-effect851" is_visible="true" lpeversion="1" />
  <svg:style type="text/css" id="style2">
   
    .fil0 {fill:#EF7F1A;fill-rule:nonzero}
   
  </svg:style>
 <inkscape:path-effect effect="spiro" id="path-effect1214" is_visible="true" lpeversion="1" /><inkscape:path-effect effect="spiro" id="path-effect1195" is_visible="true" lpeversion="1" /><inkscape:path-effect effect="spiro" id="path-effect992" is_visible="true" lpeversion="1" /><inkscape:path-effect effect="spiro" id="path-effect1060" is_visible="true" lpeversion="1" /><inkscape:path-effect effect="spiro" id="path-effect1047" is_visible="true" lpeversion="1" /><inkscape:path-effect effect="spiro" id="path-effect1085" is_visible="true" lpeversion="1" /><inkscape:path-effect effect="spiro" id="path-effect1286" is_visible="true" lpeversion="1" /><inkscape:path-effect effect="spiro" id="path-effect1305" is_visible="true" lpeversion="1" /></svg:defs>
 
<svg:g id="path849"><svg:path style="color:#000000;clip-rule:nonzero;fill:#1a5fb4;fill-rule:nonzero;stroke-linecap:round;stroke-linejoin:round;-inkscape-stroke:none;paint-order:fill stroke markers;shape-rendering:auto" d="M 289.67383,64.869141 C 285.29209000000003,64.816241 280.92464,64.851021 276.57812,64.96484099999999 C 222.56042000000002,66.37940699999999 168.13717000000003,80.32040799999999 120.83203,108.96483699999999 C 79.090485,134.240377 44.275857,170.232057 20.402344,212.79101699999998 C -3.4711709000000006,255.349967 -16.037942,303.823827 -15.847656,352.621087 A 30.003,30.003 0.0 0,0 15.869140999999999,382.45507699999996 L 150.11133,374.761717 A 30.003,30.003 0.0 0,0 178.08594,340.505857 C 173.29703999999998,307.489217 181.61551,271.837707 200.52148,244.349607 C 210.91866,229.232767 224.3167,216.742777 239.13867,209.234367 C 253.74483999999998,201.835287 270.67982,199.18445699999998 285.05273,202.253907 C 297.82502,204.981517 310.24588,212.656737 318.46094,222.898437 C 325.60244,231.801727 330.59448,243.629447 332.72852,256.306637 C 334.88115,269.094327 334.31510000000003,283.11732700000005 331.55273,297.289057 C 323.70457,337.55244700000003 298.94148,375.717897 267.62694999999997,408.87694700000003 C 236.14154999999997,442.216947 197.67504999999997,471.74354700000004 159.96483999999998,505.58202700000004 C 87.422163,570.67671 24.909474,646.8258 -24.808594,730.6582 A 30.003,30.003 0.0 0,0 -21.884766,765.36523 L 23.947266,819.4043 A 30.003,30.003 0.0 0,0 59.599609,827.14453 C 83.180949,816.04827 108.86424,809.1764000000001 134.83594,807.01367 C 207.6905,800.94689 289.17546,835.18299 381.48242,829.65039 C 420.05357,827.33856 457.99531,817.3129 492.67383,800.26953 A 30.003,30.003 0.0 0,0 508.98633,768.14062 L 485.88867,637.00195 A 30.003,30.003 0.0 0,0 438.89648,617.8007799999999 C 406.69413,640.8218999999999 370.3233,658.17554 332.16992,668.7246099999999 C 286.54769999999996,681.3387499999999 237.8361,684.3314999999999 188.13867,682.5800799999998 C 214.40425,652.4263599999998 241.83699,623.2894999999999 270.43555,595.3417999999998 C 312.19861,554.5291999999998 357.61474,515.1147599999998 399.76757999999995,470.1894499999998 C 442.50451999999996,424.6416299999998 484.1928899999999,370.3672199999998 498.68359,303.0351599999998 C 509.80575,251.3553 502.98283,193.99154 470.77148,148.44727 C 448.36029,116.75963 416.24905,94.519763 381.75781,81.345703 C 351.73311,69.877645 320.34598,65.23946 289.67383,64.869141 M 278.14844,124.94336 C 306.95537,124.18899 335.24721,127.80927 360.34766,137.39648 C 385.27082,146.91598 407.47129,162.85314 421.78516,183.0918 C 442.25605,212.03601 448.10075,252.89846 440.02734000000004,290.41211 C 429.20683,340.69037 395.59375000000006,386.95144 356.01367000000005,429.13477 C 316.65039,471.08704 271.94041000000004,509.97791 228.50000000000006,552.42969 C 188.17194000000006,591.83995 150.02486000000005,633.46888 114.21875000000006,677.02539 C 104.80016000000006,676.02316 95.39403100000006,674.92625 85.99804700000006,673.73047 C 120.08464000000006,629.15028 158.28384000000005,587.70472 200.03711000000004,550.23828 C 235.39541000000003,518.51023 275.33005,488.10802 311.25000000000006,450.07227 C 347.34083000000004,411.85557 379.5109800000001,364.86392 390.44531000000006,308.76758 C 394.3152400000001,288.91373 395.49842000000007,267.74298 391.89648000000005,246.34570000000002 C 388.27594000000005,224.83792000000003 379.81273000000004,203.49570000000003 365.26367000000005,185.35742000000002 C 348.20880000000005,164.09515000000002 324.30759000000006,149.28514 297.58398000000005,143.57812 C 267.80312000000004,137.21820000000002 237.69564000000005,142.70513000000003 212.02539000000007,155.70898000000003 C 186.57096000000007,168.60350000000003 166.27251000000007,188.26449000000002 151.08398000000008,210.34766000000002 C 129.53926000000007,241.67235000000002 117.83492000000008,278.83585000000005 116.91016000000008,316.56641 L 46.41796900000007,320.60547 C 50.29963500000007,293.12571 59.197709000000074,266.27113 72.73046900000007,242.14648000000003 C 91.45525700000007,208.76608000000002 119.17088000000007,180.11350000000002 151.91016000000008,160.28906 C 189.07457000000008,137.78509 233.45150000000007,126.11384000000001 278.14844000000005,124.94336000000001 L 278.14844,124.94336 M 434.52148,691.25391 L 445.79102,755.23437 C 424.04884,763.41857 401.04133,768.37035 377.89258,769.7578100000001 C 305.89042,774.0734000000001 225.58261000000002,740.9317400000001 135.17187,746.92187 C 137.00938000000002,744.55817 138.81626,742.17098 140.66797000000003,739.81836 C 208.45459000000002,745.40788 279.19906000000003,745.62182 348.16016,726.5546899999999 C 378.23225,718.24002 407.23027,706.3091199999999 434.52148,691.2539099999999 L 434.52148,691.25391 M 46.998046999999985,728.9238300000001 L 71.91210899999999,758.3554700000001 C 66.39368799999998,760.0294200000001 60.92230699999999,761.85283 55.515624999999986,763.8652300000001 L 37.984374999999986,743.1953100000001 C 40.969056999999985,738.4245800000001 43.92397399999999,733.63792 46.998046999999985,728.9238300000001" id="path3635" /></svg:g></svg:svg>

<svg:svg xmlns:cc="http://creativecommons.org/ns#" xmlns:dc="http://purl.org/dc/elements/1.1/" xmlns:inkscape="http://www.inkscape.org/namespaces/inkscape" xmlns:rdf="http://www.w3.org/1999/02/22-rdf-syntax-ns#" xmlns:sodipodi="http://sodipodi.sourceforge.net/DTD/sodipodi-0.dtd" xmlns:svg="http://www.w3.org/2000/svg" xml:space="preserve" width="1000" height="1000" version="1.1" style="clip-rule:evenodd;fill-rule:evenodd;image-rendering:optimizeQuality;shape-rendering:geometricPrecision;text-rendering:geometricPrecision" viewBox="0 0 1000 1000" id="svg10" sodipodi:docname="2.svg" inkscape:version="1.1.1 (3bf5ae0d25, 2021-09-20)"><svg:metadata id="metadata14"><rdf:RDF><cc:Work rdf:about=""><dc:format>image/svg+xml</dc:format><dc:type rdf:resource="http://purl.org/dc/dcmitype/StillImage" /></cc:Work></rdf:RDF></svg:metadata><sodipodi:namedview pagecolor="#ffffff" bordercolor="#666666" borderopacity="1" objecttolerance="10" gridtolerance="10" guidetolerance="10" inkscape:pageopacity="0" inkscape:pageshadow="2" inkscape:window-width="1920" inkscape:window-height="1009" id="namedview12" showgrid="false" inkscape:zoom="1.2005384" inkscape:cx="144.51849" inkscape:cy="370.66702" inkscape:window-x="1920" inkscape:window-y="0" inkscape:window-maximized="1" inkscape:current-layer="svg10" showguides="true" inkscape:guide-bbox="true" inkscape:document-rotation="0" inkscape:pagecheckerboard="0"><sodipodi:guide position="0,1000" orientation="0,1" id="guide16" inkscape:label="" inkscape:locked="true" inkscape:color="rgb(0,0,255)" /><sodipodi:guide position="1763.3122,2036.1693" orientation="1000,0" id="guide18" /><sodipodi:guide position="0,200" orientation="0,1" id="guide20" inkscape:label="base" inkscape:locked="true" inkscape:color="rgb(0,0,255)" /><inkscape:grid type="xygrid" id="grid24" originx="-473.37552" originy="-489.69235" /><sodipodi:guide position="0,0" orientation="0,1" id="guide34" inkscape:label="bottom" inkscape:locked="true" inkscape:color="rgb(0,0,255)" /><sodipodi:guide position="225.05109,1693.3186" orientation="0,1" id="guide44" inkscape:label="" inkscape:locked="false" inkscape:color="rgb(0,0,255)" /><sodipodi:guide position="0,900" orientation="0,1" id="guide46" inkscape:label="" inkscape:locked="true" inkscape:color="rgb(0,0,255)" /><sodipodi:guide position="479.442,877.39146" orientation="-1,0" id="guide841" inkscape:label="width" inkscape:locked="false" inkscape:color="rgb(0,0,255)" /></sodipodi:namedview>
 <svg:defs id="defs4"><inkscape:path-effect effect="fillet_chamfer" id="path-effect855" is_visible="true" lpeversion="1" satellites_param="F,0,0,1,0,15.855494,0,1 @ F,0,0,1,0,15.855494,0,1 @ F,0,0,1,0,0,0,1 @ F,0,0,1,0,0,0,1 @ F,0,0,1,0,0,0,1 @ F,0,0,1,0,0,0,1 @ F,0,0,1,0,0,0,1 @ F,0,0,1,0,0,0,1 @ F,0,0,1,0,0,0,1 @ F,0,0,1,0,0,0,1 @ F,0,0,1,0,0,0,1 @ F,0,0,1,0,0,0,1 @ F,0,0,1,0,0,0,1 @ F,0,0,1,0,0,0,1 @ F,0,0,1,0,0,0,1 @ F,0,0,1,0,0,0,1 @ F,0,0,1,0,15.855494,0,1 @ F,0,0,1,0,15.855494,0,1 @ F,0,0,1,0,0,0,1 @ F,0,0,1,0,0,0,1 @ F,0,1,1,0,9.2919795,0,1 @ F,0,1,1,0,9.2919795,0,1 @ F,0,0,1,0,0,0,1 @ F,0,0,1,0,0,0,1 @ F,0,0,1,0,0,0,1 @ F,0,0,1,0,0,0,1 @ F,0,0,1,0,0,0,1 @ F,0,0,1,0,0,0,1 @ F,0,0,1,0,0,0,1 @ F,0,0,1,0,0,0,1" unit="px" method="auto" mode="F" radius="0" chamfer_steps="1" flexible="false" use_knot_distance="true" apply_no_radius="true" apply_with_radius="true" only_selected="true" hide_knots="false" /><inkscape:path-effect effect="fillet_chamfer" id="path-effect854" is_visible="true" lpeversion="1" satellites_param="F,0,1,1,0,34.686291,0,1 @ F,0,1,1,0,34.686291,0,1 @ F,0,0,1,0,0,0,1 @ F,0,0,1,0,0,0,1 @ F,0,0,1,0,0,0,1 @ F,0,0,1,0,0,0,1 @ F,0,0,1,0,0,0,1 @ F,0,0,1,0,0,0,1 @ F,0,0,1,0,0,0,1 @ F,0,0,1,0,0,0,1 @ F,0,0,1,0,0,0,1 @ F,0,0,1,0,0,0,1 @ F,0,0,1,0,0,0,1 @ F,0,0,1,0,0,0,1 @ F,0,0,1,0,0,0,1 @ F,0,1,1,0,34.686291,0,1 @ F,0,1,1,0,34.686291,0,1 @ F,0,0,1,0,0,0,1 @ F,0,0,1,0,0,0,1 @ F,0,0,1,0,0,0,1 @ F,0,1,1,0,34.686291,0,1 @ F,0,0,1,0,0,0,1 @ F,0,0,1,0,0,0,1 @ F,0,0,1,0,0,0,1 @ F,0,0,1,0,0,0,1 @ F,0,0,1,0,0,0,1 @ F,0,0,1,0,0,0,1 @ F,0,0,1,0,0,0,1 @ F,0,0,1,0,0,0,1" unit="px" method="auto" mode="F" radius="0" chamfer_steps="1" flexible="false" use_knot_distance="true" apply_no_radius="true" apply_with_radius="true" only_selected="true" hide_knots="false" /><inkscape:path-effect effect="fillet_chamfer" id="path-effect853" is_visible="true" lpeversion="1" satellites_param="F,0,0,1,1,34.977059,0,1 @ F,0,0,1,1,16.975097,0,1 @ F,0,0,1,1,0,0,1 @ F,0,0,1,1,0,0,1 @ F,0,0,1,1,0,0,1 @ F,0,0,1,1,0,0,1 @ F,0,0,1,1,0,0,1 @ F,0,0,1,1,0,0,1 @ F,0,1,1,1,0,0,1 @ F,0,0,1,1,0,0,1 @ F,0,0,1,1,0,0,1 @ F,0,0,1,1,0,0,1 @ F,0,0,1,1,0,0,1 @ F,0,0,1,1,0,0,1 @ F,0,0,1,1,0,0,1 @ F,0,0,1,1,0,0,1 @ F,0,0,1,1,0,0,1 @ F,0,0,1,1,0,0,1 @ F,0,0,1,1,0,0,1 @ F,0,0,1,1,0,0,1 @ F,0,0,1,1,32.511353,0,1 @ F,0,0,1,1,21.83072,0,1 @ F,0,0,1,1,0,0,1 @ F,0,0,1,1,0,0,1 @ F,0,0,1,1,0,0,1 @ F,0,0,1,1,31.407973,0,1 @ F,0,0,1,1,0,0,1 @ F,0,0,1,1,0,0,1 @ F,0,0,1,1,0,0,1 @ F,0,0,1,1,0,0,1 @ F,0,0,1,1,0,0,1 @ F,0,0,1,1,0,0,1 @ F,0,0,1,1,0,0,1" unit="px" method="auto" mode="F" radius="0" chamfer_steps="1" flexible="false" use_knot_distance="true" apply_no_radius="true" apply_with_radius="true" only_selected="true" hide_knots="true" /><inkscape:path-effect effect="spiro" id="path-effect852" is_visible="true" lpeversion="1" /><inkscape:path-effect effect="spiro" id="path-effect850" is_visible="true" lpeversion="1" /><inkscape:path-effect effect="spiro" id="path-effect851" is_visible="true" lpeversion="1" />
  <svg:style type="text/css" id="style2">
   
    .fil0 {fill:#EF7F1A;fill-rule:nonzero}
   
  </svg:style>
 <inkscape:path-effect effect="spiro" id="path-effect1214" is_visible="true" lpeversion="1" /><inkscape:path-effect effect="spiro" id="path-effect1195" is_visible="true" lpeversion="1" /><inkscape:path-effect effect="spiro" id="path-effect992" is_visible="true" lpeversion="1" /><inkscape:path-effect effect="spiro" id="path-effect1060" is_visible="true" lpeversion="1" /><inkscape:path-effect effect="spiro" id="path-effect1047" is_visible="true" lpeversion="1" /><inkscape:path-effect effect="spiro" id="path-effect1085" is_visible="true" lpeversion="1" /><inkscape:path-effect effect="spiro" id="path-effect1286" is_visible="true" lpeversion="1" /><inkscape:path-effect effect="spiro" id="path-effect1305" is_visible="true" lpeversion="1" /></svg:defs>
 
<svg:g id="path849"><svg:path style="color:#000000;clip-rule:nonzero;fill:#1a5fb4;fill-rule:nonzero;stroke-linecap:round;stroke-linejoin:round;-inkscape-stroke:none;shape-rendering:auto" d="m 289.67383,64.869141 c -4.38174,-0.0529 -8.74919,-0.01812 -13.09571,0.0957 -54.0177,1.414566 -108.44095,15.355567 -155.74609,43.999996 -41.741545,25.27554 -76.556173,61.26722 -100.429686,103.82618 -23.8735149,42.55895 -36.440286,91.03281 -36.25,139.83007 a 30.003,30.003 0 0 0 31.716797,29.83399 l 134.242189,-7.69336 a 30.003,30.003 0 0 0 27.97461,-34.25586 c -4.7889,-33.01664 3.52957,-68.66815 22.43554,-96.15625 10.39718,-15.11684 23.79522,-27.60683 38.61719,-35.11524 14.60617,-7.39908 31.54115,-10.04991 45.91406,-6.98046 12.77229,2.72761 25.19315,10.40283 33.40821,20.64453 7.1415,8.90329 12.13354,20.73101 14.26758,33.4082 2.15263,12.78769 1.58658,26.81069 -1.17579,40.98242 -7.84816,40.26339 -32.61125,78.42884 -63.92578,111.58789 -31.4854,33.34 -69.9519,62.8666 -107.66211,96.70508 C 87.422163,570.67671 24.909474,646.8258 -24.808594,730.6582 a 30.003,30.003 0 0 0 2.923828,34.70703 l 45.832032,54.03907 a 30.003,30.003 0 0 0 35.652343,7.74023 c 23.58134,-11.09626 49.264631,-17.96813 75.236331,-20.13086 72.85456,-6.06678 154.33952,28.16932 246.64648,22.63672 38.57115,-2.31183 76.51289,-12.33749 111.19141,-29.38086 a 30.003,30.003 0 0 0 16.3125,-32.12891 L 485.88867,637.00195 a 30.003,30.003 0 0 0 -46.99219,-19.20117 c -32.20235,23.02112 -68.57318,40.37476 -106.72656,50.92383 -45.62222,12.61414 -94.33382,15.60689 -144.03125,13.85547 26.26558,-30.15372 53.69832,-59.29058 82.29688,-87.23828 41.76306,-40.8126 87.17919,-80.22704 129.33203,-125.15235 42.73694,-45.54782 84.42531,-99.82223 98.91601,-167.15429 C 509.80575,251.3553 502.98283,193.99154 470.77148,148.44727 448.36029,116.75963 416.24905,94.519763 381.75781,81.345703 351.73311,69.877645 320.34598,65.23946 289.67383,64.869141 Z m -11.52539,60.074219 c 28.80693,-0.75437 57.09877,2.86591 82.19922,12.45312 24.92316,9.5195 47.12363,25.45666 61.4375,45.69532 20.47089,28.94421 26.31559,69.80666 18.24218,107.32031 -10.82051,50.27826 -44.43359,96.53933 -84.01367,138.72266 -39.36328,41.95227 -84.07326,80.84314 -127.51367,123.29492 -40.32806,39.41026 -78.47514,81.03919 -114.28125,124.5957 -9.41859,-1.00223 -18.824719,-2.09914 -28.220703,-3.29492 34.086593,-44.58019 72.285793,-86.02575 114.039063,-123.49219 35.3583,-31.72805 75.29294,-62.13026 111.21289,-100.16601 36.09083,-38.2167 68.26098,-85.20835 79.19531,-141.30469 3.86993,-19.85385 5.05311,-41.0246 1.45117,-62.42188 -3.62054,-21.50778 -12.08375,-42.85 -26.63281,-60.98828 -17.05487,-21.26227 -40.95608,-36.07228 -67.67969,-41.7793 -29.78086,-6.35992 -59.88834,-0.87299 -85.55859,12.13086 -25.45443,12.89452 -45.75288,32.55551 -60.94141,54.63868 -21.54472,31.32469 -33.24906,68.48819 -34.17382,106.21875 l -70.492191,4.03906 c 3.881666,-27.47976 12.77974,-54.33434 26.3125,-78.45899 18.724788,-33.3804 46.440411,-62.03298 79.179691,-81.85742 37.16441,-22.50397 81.54134,-34.17522 126.23828,-35.3457 z m 156.37304,566.31055 11.26954,63.98046 c -21.74218,8.1842 -44.74969,13.13598 -67.89844,14.52344 -72.00216,4.31559 -152.30997,-28.82607 -242.72071,-22.83594 1.83751,-2.3637 3.64439,-4.75089 5.4961,-7.10351 67.78662,5.58952 138.53109,5.80346 207.49219,-13.26367 30.07209,-8.31467 59.07011,-20.24557 86.36132,-35.30078 z m -387.523433,37.66992 24.914062,29.43164 c -5.518421,1.67395 -10.989802,3.49736 -16.396484,5.50976 l -17.53125,-20.66992 c 2.984682,-4.77073 5.939599,-9.55739 9.013672,-14.27148 z" id="path3633" /></svg:g></svg:svg>
